docs/public/favicon.svg

<svg width="64" height="64" viewBox="0 0 64 64" fill="none" xmlns="http://www.w3.org/2000/svg">
<path d="M27.2442 33.8676C22.513 33.8676 18.6783 28.9182 18.6783 21.5456C18.6783 14.0108 22.2286 10.6037 23.7306 9.49938C24.0915 9.23449 24.5943 9.28569 24.8943 9.61796C26.4487 11.3433 31.0492 16.8352 31.0492 21.4427C31.0492 28.8169 31.9703 33.8676 27.2442 33.8676ZM36.7557 33.8676C41.4869 33.8676 45.3215 28.9182 45.3215 21.5456C45.3215 14.0108 41.7713 10.6037 40.2693 9.49938C39.9084 9.23449 39.4056 9.28569 39.1055 9.61796C37.5512 11.3433 32.9507 16.8352 32.9507 21.4427C32.9507 28.8169 32.0296 33.8676 36.7557 33.8676Z" fill="#EF8294"/>
<path d="M32 35.7186C22.9806 26.5595 26.2046 24.3561 7.06308 17.8924C6.63215 17.7463 6.16122 17.9559 5.98148 18.374C2.83428 25.7291 3.59322 31.2123 13.3104 33.8901C9.57526 33.8658 5.64655 34.3246 1.42468 34.7484C0.943794 34.7972 0.594105 35.2274 0.644772 35.7081C1.21188 41.1145 6.95499 48.8812 20.2085 44.642C19.9351 45.242 19.7918 45.893 19.7881 46.5524C19.7881 51.2329 28.7969 53.9214 31.337 54.586C31.7719 54.6978 32.2281 54.6978 32.6629 54.586C35.203 53.9214 44.2121 51.2329 44.2121 46.5524C44.2121 45.8772 44.0567 45.2421 43.7916 44.6437C57.0434 48.883 62.7865 41.1163 63.3552 35.7097C63.4058 35.2292 63.0562 34.7988 62.5753 34.7502C58.3534 34.3264 54.4265 33.8658 50.6896 33.8919C60.4069 31.214 61.1639 25.7308 58.0185 18.3756C57.8394 17.957 57.3683 17.7465 56.9369 17.8924C37.7955 24.3543 41.0193 26.5595 32 35.7186Z" fill="#F4ABBA"/>
<path d="M47.6577 13.7282C47.2664 13.1525 46.4159 13.1589 46.0335 13.7404L40.3478 22.3952L39.6047 22.3934C39.6047 22.3534 39.6134 22.3166 39.6134 22.2766C39.6134 15.8619 34.0621 12.1616 32.4415 11.2178C32.17 11.0606 31.8353 11.0606 31.564 11.2178C29.9432 12.1616 24.3885 15.8619 24.3885 22.2766C24.3885 22.3166 24.3972 22.3534 24.3972 22.3934L23.6541 22.3952L17.9668 13.7404C17.5837 13.1595 16.7332 13.154 16.3426 13.73C13.8705 17.3691 12.0893 21.8823 13.0977 26.7653C15.0132 36.0517 23.3313 40.6242 32.0036 38.5744C40.6706 40.6242 48.9887 36.0535 50.9042 26.7653C51.9108 21.8805 50.1297 17.3673 47.6577 13.7282Z" fill="#EA596E"/>
<path d="M27.0141 36.6693L22.4834 23.3477H41.5166L36.986 36.6693H27.0141Z" fill="#F4900C"/>
<path d="M22.4834 23.3477C22.4735 25.5449 30.3977 26.9212 36.7471 25.8252C39.7019 25.3154 41.5213 24.3701 41.5167 23.3477C41.5266 21.1506 33.6023 19.7742 27.253 20.8702C24.2982 21.3803 22.4788 22.3253 22.4834 23.3477Z" fill="#FFDC5D"/>
<path d="M32.0018 44.1239C27.7956 44.1239 24.3867 40.0956 24.3867 34.096C24.3867 27.472 29.9119 23.6427 31.5499 22.6551C31.828 22.4878 32.1757 22.4878 32.4536 22.6551C34.09 23.6443 39.6134 27.472 39.6134 34.0978C39.6134 40.0956 36.2045 44.1239 32.0018 44.1239Z" fill="#EA596E"/>
<path d="M56.424 24.438C56.4252 23.8724 55.8987 23.4533 55.3476 23.5815C50.6896 24.7051 32.061 30.0713 32.0018 44.0576C31.9406 30.0713 13.3122 24.7051 8.65422 23.5815C8.10116 23.4457 7.56871 23.8686 7.576 24.438C7.61262 28.7141 9.31876 44.1204 31.9964 44.1239H32.0036C54.6812 44.1204 56.3874 28.7141 56.424 24.438Z" fill="#EF8294"/>
</svg>

<svg xmlns="http://www.w3.org/2000/svg" width="64" height="64" fill="none" viewBox="0 0 64 64"><path fill="#ef8294" d="M27.244 33.868c-4.731 0-8.566-4.95-8.566-12.322 0-7.535 3.55-10.942 5.053-12.047a.87.87 0 0 1 1.163.119c1.555 1.725 6.155 7.217 6.155 11.825 0 7.374.921 12.425-3.805 12.425m9.512 0c4.73 0 8.566-4.95 8.566-12.322 0-7.535-3.55-10.942-5.053-12.047a.873.873 0 0 0-1.163.119c-1.555 1.725-6.155 7.217-6.155 11.825 0 7.374-.921 12.425 3.805 12.425"/><path fill="#f4abba" d="M32 35.719c-9.02-9.16-5.795-11.363-24.937-17.827a.87.87 0 0 0-1.082.482c-3.147 7.355-2.388 12.838 7.33 15.516-3.736-.024-7.664.435-11.886.858a.873.873 0 0 0-.78.96c.567 5.407 6.31 13.173 19.564 8.934a4.7 4.7 0 0 0-.42 1.91c0 4.68 9.008 7.37 11.548 8.034.435.112.891.112 1.326 0 2.54-.665 11.55-3.353 11.55-8.034 0-.675-.156-1.31-.421-1.908 13.251 4.239 18.994-3.528 19.563-8.934a.873.873 0 0 0-.78-.96c-4.222-.424-8.149-.884-11.885-.858 9.717-2.678 10.474-8.161 7.329-15.516a.87.87 0 0 0-1.082-.484C37.796 24.354 41.019 26.56 32 35.72"/><path fill="#ea596e" d="M47.658 13.728a.977.977 0 0 0-1.625.012l-5.685 8.655-.743-.002c0-.04.008-.076.008-.116 0-6.415-5.55-10.115-7.172-11.06a.88.88 0 0 0-.877 0c-1.62.945-7.175 4.645-7.175 11.06 0 .04.008.076.008.116l-.743.002-5.687-8.655a.977.977 0 0 0-1.624-.01c-2.472 3.64-4.254 8.152-3.245 13.035 1.915 9.287 10.233 13.86 18.906 11.81 8.667 2.05 16.985-2.522 18.9-11.81 1.007-4.884-.774-9.398-3.246-13.037"/><path fill="#f4900c" d="m27.014 36.67-4.53-13.322h19.033l-4.531 13.321z"/><path fill="#ffdc5d" d="M22.483 23.348c-.01 2.197 7.915 3.573 14.264 2.477 2.955-.51 4.774-1.455 4.77-2.477.01-2.197-7.915-3.574-14.264-2.478-2.955.51-4.774 1.455-4.77 2.478"/><path fill="#ea596e" d="M32.002 44.124c-4.206 0-7.615-4.028-7.615-10.028 0-6.624 5.525-10.453 7.163-11.44a.88.88 0 0 1 .904 0c1.636.988 7.16 4.816 7.16 11.442 0 5.998-3.41 10.026-7.612 10.026"/><path fill="#ef8294" d="M56.424 24.438a.878.878 0 0 0-1.076-.857c-4.658 1.124-23.287 6.49-23.346 20.477-.061-13.987-18.69-19.353-23.348-20.476a.87.87 0 0 0-1.078.856c.037 4.276 1.743 19.682 24.42 19.686h.008c22.677-.004 24.383-15.41 24.42-19.686"/></svg>
